app/assets/images/icons/active/arrow-down.svg

<?xml version="1.0" encoding="UTF-8" standalone="no"?>
<svg width="32px" height="232px" viewBox="0 0 32 232" version="1.1" xmlns="http://www.w3.org/2000/svg" xmlns:xlink="http://www.w3.org/1999/xlink" xmlns:sketch="http://www.bohemiancoding.com/sketch/ns">
    <title>arrow-down</title>
    <description>Created with Sketch (http://www.bohemiancoding.com/sketch)</description>
    <defs></defs>
    <g id="Functions" stroke="none" stroke-width="1" fill="none" fill-rule="evenodd" sketch:type="MSPage">
        <path d="M17.7015967,148.29 L26.3021563,139.598 C27.2326146,138.655 27.2326146,137.123 26.3021563,136.182 C25.3687315,135.236 23.8548827,135.236 22.926402,136.182 L18.4530827,140.7 L18.4530827,126.414 C18.4530827,125.084 17.3851815,124 16.0661258,124 C14.7411373,124 13.6752138,125.084 13.6752138,126.414 L13.6752138,140.83 L9.07532838,136.182 C8.14783644,135.236 6.63201007,135.236 5.70155174,136.182 C4.76614942,137.123 4.76614942,138.655 5.70155174,139.598 L14.2971673,148.29 C14.7668461,148.768 15.3848444,149.002 16.0008652,149 C16.6149084,149.002 17.2309291,148.768 17.7015967,148.29" id="arrow-down--lp-blue" fill="#206FAC" sketch:type="MSShapeGroup"></path>
        <path d="M17.7015967,108.29 L26.3021563,99.598 C27.2326146,98.655 27.2326146,97.123 26.3021563,96.182 C25.3687315,95.236 23.8548827,95.236 22.926402,96.182 L18.4530827,100.7 L18.4530827,86.414 C18.4530827,85.084 17.3851815,84 16.0661258,84 C14.7411373,84 13.6752138,85.084 13.6752138,86.414 L13.6752138,100.83 L9.07532838,96.182 C8.14783644,95.236 6.63201007,95.236 5.70155174,96.182 C4.76614942,97.123 4.76614942,98.655 5.70155174,99.598 L14.2971673,108.29 C14.7668461,108.768 15.3848444,109.002 16.0008652,109 C16.6149084,109.002 17.2309291,108.768 17.7015967,108.29" id="arrow-down--white" fill="#FFFFFF" sketch:type="MSShapeGroup"></path>
        <path d="M17.7015967,68.29 L26.3021563,59.598 C27.2326146,58.655 27.2326146,57.123 26.3021563,56.182 C25.3687315,55.236 23.8548827,55.236 22.926402,56.182 L18.4530827,60.7 L18.4530827,46.414 C18.4530827,45.084 17.3851815,44 16.0661258,44 C14.7411373,44 13.6752138,45.084 13.6752138,46.414 L13.6752138,60.83 L9.07532838,56.182 C8.14783644,55.236 6.63201007,55.236 5.70155174,56.182 C4.76614942,57.123 4.76614942,58.655 5.70155174,59.598 L14.2971673,68.29 C14.7668461,68.768 15.3848444,69.002 16.0008652,69 C16.6149084,69.002 17.2309291,68.768 17.7015967,68.29" id="arrow-down--body-grey" fill="#67737B" sketch:type="MSShapeGroup"></path>
        <path d="M17.7015967,28.29 L26.3021563,19.598 C27.2326146,18.655 27.2326146,17.123 26.3021563,16.182 C25.3687315,15.236 23.8548827,15.236 22.926402,16.182 L18.4530827,20.7 L18.4530827,6.414 C18.4530827,5.084 17.3851815,4 16.0661258,4 C14.7411373,4 13.6752138,5.084 13.6752138,6.414 L13.6752138,20.83 L9.07532838,16.182 C8.14783644,15.236 6.63201007,15.236 5.70155174,16.182 C4.76614942,17.123 4.76614942,18.655 5.70155174,19.598 L14.2971673,28.29 C14.7668461,28.768 15.3848444,29.002 16.0008652,29 C16.6149084,29.002 17.2309291,28.768 17.7015967,28.29" id="arrow-down--title-grey" fill="#3A434E" sketch:type="MSShapeGroup"></path>
    </g>
</svg>

<svg width="32" height="232" viewBox="0 0 32 232" xmlns="http://www.w3.org/2000/svg" xmlns:sketch="http://www.bohemiancoding.com/sketch/ns"><title>arrow-down</title><g sketch:type="MSPage" fill="none"><path d="M17.702 148.29l8.601-8.692c.93-.943.93-2.475 0-3.416-.933-.946-2.447-.946-3.376 0l-4.473 4.518v-14.286c0-1.33-1.068-2.414-2.387-2.414-1.325 0-2.391 1.084-2.391 2.414v14.416l-4.6-4.648c-.927-.946-2.443-.946-3.374 0-.935.941-.935 2.473 0 3.416l8.596 8.692c.47.478 1.088.712 1.704.71.614.002 1.23-.232 1.701-.71" fill="#206FAC" sketch:type="MSShapeGroup"/><path d="M17.702 108.29l8.601-8.692c.93-.943.93-2.475 0-3.416-.933-.946-2.447-.946-3.376 0l-4.473 4.518v-14.286c0-1.33-1.068-2.414-2.387-2.414-1.325 0-2.391 1.084-2.391 2.414v14.416l-4.6-4.648c-.927-.946-2.443-.946-3.374 0-.935.941-.935 2.473 0 3.416l8.596 8.692c.47.478 1.088.712 1.704.71.614.002 1.23-.232 1.701-.71" fill="#fff" sketch:type="MSShapeGroup"/><path d="M17.702 68.29l8.601-8.692c.93-.943.93-2.475 0-3.416-.933-.946-2.447-.946-3.376 0l-4.473 4.518v-14.286c0-1.33-1.068-2.414-2.387-2.414-1.325 0-2.391 1.084-2.391 2.414v14.416l-4.6-4.648c-.927-.946-2.443-.946-3.374 0-.935.941-.935 2.473 0 3.416l8.596 8.692c.47.478 1.088.712 1.704.71.614.002 1.23-.232 1.701-.71" fill="#67737B" sketch:type="MSShapeGroup"/><path d="M17.702 28.29l8.601-8.692c.93-.943.93-2.475 0-3.416-.933-.946-2.447-.946-3.376 0l-4.473 4.518v-14.286c0-1.33-1.068-2.414-2.387-2.414-1.325 0-2.391 1.084-2.391 2.414v14.416l-4.6-4.648c-.927-.946-2.443-.946-3.374 0-.935.941-.935 2.473 0 3.416l8.596 8.692c.47.478 1.088.712 1.704.71.614.002 1.23-.232 1.701-.71" fill="#3A434E" sketch:type="MSShapeGroup"/></g></svg>
